X: 11995
T: Eoghainn Ian Alasdair
R: reel
M: 4/4
K: Gmajor
|:e3f geB2|e3f geB2|d3e fAA2|defa gee2|
e3f geB2|e3f gdef|g2fg ecAG|1 FGAF G4:|2 FGAF GDEF||
|:G3B cEE2|EFGA FDEF|GBB2 cEE2|egfa gedB|
G3B cEE2|EFGA Bdef|g2fg ecAG|1 FGAF GDEF:|2 FGAF G4||

